X: 33046
T: Pride Of Petravore, The
R: hornpipe
M: 4/4
K: Eminor
|:E3F GFGA|BcBA ~G2E2|D3E FEFG|ABAG ~F2D2|
E3F GFGA|BcBA ~G2E2|B2Bc BA~F2|1 ~G2E2 E2EF:|2 ~G2E2 E2ee/e/||
|:e2ef g3e|dBGA B2Bc|BAFE F2AB|AGED EFGA|
Bdef g3e|dBGA B2GA|B2Bc BA~F2|1 ~G2E2 E2ee/e/:|2 ~G2E2 E2EF||

